X:5
T:The Hare's Paw
R:reel
D:Snug in the Blanket,P.O'Brien,J.Gans,D.Sproule
O:Sliabh Luachra
S:Denis and Julia Murphy, fiddles, Co. Kerry
Z:Paul Stewart Cranford (P.S.C.), <http://www.cranfordpub.com>
L:1/8
Q:333
M:C|
K:Eaeo
G3 A BEEB|dBAc BEEF|GFGA BABd|eg (3fgf edBA|
G3 A BEEB|dBAc BEEF|G3 A BABd|eg (3fgf eBef||
||gefd edBA|dfed Bdef|gefd edBd|eg (3fgf eBef|
gefd edBA|dfed Bdef|gfga gedf|eaaf gedB|]
